X:262
T:Ian MacKintosh of Pine House 
C:Joe Buchanan's Scottish Tome - Page 308.2
I:308 2
C:Lindsay Ross
R:Jig
Z:Carl Allison
L:1/8
M:6/8
K:D
A |"D" dAd fed |"G" B2 d G2 B |"D" A2 d fed |"A7" Aef gfe |
"D" dAd fed |"G" B2 d "Em"g2 B |"D" A2 d "A7"fed |"D" d3 d2 :|
F/G/ |"D" A3 Adc |"G" B3 Bed |"A7" c3 cfe |"D" dcB "A7"AFG |
"D"A3 Adc |"G" B3 Bed |"A7" cde ABc |"D" d3 d2 :|

